svg/nature/dog_line.svg

<?xml version="1.0" encoding="UTF-8"?>
<svg width="24px" height="24px" viewBox="0 0 24 24" version="1.1" xmlns="http://www.w3.org/2000/svg" xmlns:xlink="http://www.w3.org/1999/xlink">
    <title>dog_line</title>
    <g id="Icon" stroke="none" stroke-width="1" fill="none" fill-rule="evenodd">
        <g id="Nature" transform="translate(-96.000000, -96.000000)">
            <g id="dog_line" transform="translate(96.000000, 96.000000)">
                <path d="M24,0 L24,24 L0,24 L0,0 L24,0 Z M12.5935,23.2578 L12.5819,23.2595 L12.5109,23.295 L12.4919,23.2987 L12.4767,23.295 L12.4057,23.2595 C12.3958,23.2564 12.387,23.259 12.3821,23.2649 L12.378,23.2758 L12.3609,23.7031 L12.3659,23.7235 L12.3769,23.7357 L12.4805,23.8097 L12.4953,23.8136 L12.5071,23.8097 L12.6107,23.7357 L12.6233,23.7197 L12.6267,23.7031 L12.6096,23.2758 C12.6076,23.2657 12.601,23.2593 12.5935,23.2578 Z M12.8584,23.1453 L12.8445,23.1473 L12.6598,23.2397 L12.6499,23.2499 L12.6472,23.2611 L12.6651,23.6906 L12.6699,23.7034 L12.6784,23.7105 L12.8793,23.8032 C12.8914,23.8069 12.9022,23.803 12.9078,23.7952 L12.9118,23.7812 L12.8777,23.1665 C12.8753,23.1546 12.8674,23.147 12.8584,23.1453 Z M12.143,23.1473 C12.1332,23.1424 12.1222,23.1453 12.1156,23.1526 L12.1099,23.1665 L12.0758,23.7812 C12.0751,23.7927 12.0828,23.8019 12.0926,23.8046 L12.1083,23.8032 L12.3092,23.7105 L12.3186,23.7024 L12.3225,23.6906 L12.3404,23.2611 L12.3372,23.2485 L12.3278,23.2397 L12.143,23.1473 Z" id="MingCute" fill-rule="nonzero"></path>
                <path d="M17.4751,3.64426 C18.5952,3.08423 19.9486,3.67958 20.2926,4.88367 L21.9616,10.7251 C22.0635,11.0818 21.9596,11.4656 21.6916,11.7221 C21.4237,11.9787 21.0357,12.0658 20.6838,11.9485 L19.1271,11.4296 C19.2719,16.3094 16.6483,19.1533 15.3061,20.2746 C14.6639,20.8111 13.8808,20.9998 13.1691,20.9998 L10.831,20.9998 C10.1193,20.9998 9.33619,20.8111 8.69396,20.2746 C7.4008,19.1943 4.91817,16.5149 4.86806,11.9563 L3.55475,12.8319 C3.211,13.061 2.76171,13.0552 2.42401,12.8172 C2.0863,12.5793 1.92971,12.1581 2.02991,11.7573 L3.72756,4.96669 C4.03789,3.72539 5.41786,3.0907 6.56227,3.66291 L9.02498,4.89426 C9.16383,4.96368 9.31695,4.99983 9.47219,4.99983 L14.5279,4.99983 C14.6832,4.99983 14.8363,4.96368 14.9751,4.89426 L17.4751,3.64426 Z M18.3695,5.43312 L15.8696,6.68311 C15.453,6.89139 14.9937,6.99983 14.5279,6.99983 L9.47219,6.99983 C9.00646,6.99983 8.54712,6.89139 8.13055,6.68311 L5.66785,5.45176 L4.59754,9.73299 L5.44535,9.16778 C5.7735,8.94902 6.19958,8.94355 6.53323,9.15382 C6.86688,9.3641 7.04578,9.75083 6.99,10.1413 C6.28743,15.0593 8.80637,17.7624 9.97621,18.7397 C10.1685,18.9004 10.4553,18.9998 10.831,18.9998 L13.1691,18.9998 C13.5449,18.9998 13.8316,18.9004 14.0239,18.7397 C15.1937,17.7624 17.7127,15.0593 17.0101,10.1413 C16.9611,9.79816 17.0932,9.45415 17.3593,9.23208 C17.6254,9.01001 17.9875,8.94155 18.3163,9.05115 L19.5177,9.45162 L18.3695,5.43312 Z M11.0001,10.9998 C11.0001,11.5521 10.5523,11.9998 10.0001,11.9998 C9.44777,11.9998 9.00005,11.5521 9.00005,10.9998 C9.00005,10.4475 9.44777,9.99983 10.0001,9.99983 C10.5523,9.99983 11.0001,10.4475 11.0001,10.9998 Z M14.0001,11.9998 C14.5523,11.9998 15.0001,11.5521 15.0001,10.9998 C15.0001,10.4475 14.5523,9.99983 14.0001,9.99983 C13.4478,9.99983 13.0001,10.4475 13.0001,10.9998 C13.0001,11.5521 13.4478,11.9998 14.0001,11.9998 Z M12.0001,13.4998 C12.5523,13.4998 13.0001,13.9475 13.0001,14.4998 C13.0001,14.776 13.2239,14.9998 13.5001,14.9998 C14.0523,14.9998 14.5001,15.4475 14.5001,15.9998 C14.5001,16.5521 14.0523,16.9998 13.5001,16.9998 C12.9373,16.9998 12.4179,16.8139 12.0001,16.5 C11.5822,16.8139 11.0629,16.9998 10.5001,16.9998 C9.94777,16.9998 9.50005,16.5521 9.50005,15.9998 C9.50005,15.4475 9.94777,14.9998 10.5001,14.9998 C10.7762,14.9998 11.0001,14.776 11.0001,14.4998 C11.0001,13.9475 11.4478,13.4998 12.0001,13.4998 Z" id="形状" fill="#09244B"></path>
            </g>
        </g>
    </g>
</svg>

<svg xmlns="http://www.w3.org/2000/svg" width="24" height="24"><g fill="none" fill-rule="evenodd"><path d="M24 0v24H0V0h24ZM12.594 23.258l-.012.002-.071.035-.02.004-.014-.004-.071-.036c-.01-.003-.019 0-.024.006l-.004.01-.017.428.005.02.01.013.104.074.015.004.012-.004.104-.074.012-.016.004-.017-.017-.427c-.002-.01-.009-.017-.016-.018Zm.264-.113-.014.002-.184.093-.01.01-.003.011.018.43.005.012.008.008.201.092c.012.004.023 0 .029-.008l.004-.014-.034-.614c-.003-.012-.01-.02-.02-.022Zm-.715.002a.023.023 0 0 0-.027.006l-.006.014-.034.614c0 .012.007.02.017.024l.015-.002.201-.093.01-.008.003-.011.018-.43-.003-.012-.01-.01-.184-.092Z"/><path fill="#09244B" d="M17.475 3.644a2 2 0 0 1 2.818 1.24l1.669 5.841a1 1 0 0 1-1.278 1.223l-1.557-.518c.145 4.88-2.479 7.723-3.82 8.845-.643.536-1.426.725-2.138.725h-2.338c-.712 0-1.495-.189-2.137-.725-1.293-1.08-3.776-3.76-3.826-8.319l-1.313.876a1 1 0 0 1-1.525-1.075l1.698-6.79a2 2 0 0 1 2.834-1.304l2.463 1.231A1 1 0 0 0 9.472 5h5.056a1 1 0 0 0 .447-.106l2.5-1.25Zm.894 1.79-2.5 1.25A3 3 0 0 1 14.529 7H9.472a3 3 0 0 1-1.341-.317L5.668 5.452l-1.07 4.281.847-.565a1 1 0 0 1 1.545.973c-.703 4.918 1.816 7.621 2.986 8.599.192.16.48.26.855.26h2.338c.376 0 .663-.1.855-.26 1.17-.978 3.689-3.68 2.986-8.599a1 1 0 0 1 1.306-1.09l1.202.4-1.149-4.018ZM11 11a1 1 0 1 1-2 0 1 1 0 0 1 2 0Zm3 1a1 1 0 1 0 0-2 1 1 0 0 0 0 2Zm-2 1.5a1 1 0 0 1 1 1 .5.5 0 0 0 .5.5 1 1 0 0 1 0 2 2.488 2.488 0 0 1-1.5-.5c-.418.314-.937.5-1.5.5a1 1 0 1 1 0-2 .5.5 0 0 0 .5-.5 1 1 0 0 1 1-1Z"/></g></svg>
